icons/layout-flex-rows-filled.svg

<svg fill="none" viewBox="0 0 24 24"><path stroke="currentColor" stroke-linecap="round" stroke-linejoin="round" stroke-width="2" d="M17 9.8v-2.9m-3.3 2.8v-2.8m-3.4 10.2v-2.9m-3.4 2.9v-2.9m3.4-4.4v-2.9m-3.4 2.8v-2.8m10.7-3.9h-11.2a3.4 3.4 0 0 0-3.4 3.4v11.2a3.4 3.4 0 0 0 3.4 3.4h11.2a3.4 3.4 0 0 0 3.4-3.4v-11.2a3.4 3.4 0 0 0-3.4-3.4Z"/></svg>

<svg fill="none" viewBox="0 0 24 24"><path stroke="currentColor" stroke-linecap="round" stroke-linejoin="round" stroke-width="2" d="M17 9.8V6.9m-3.3 2.8V7m-3.4 10.2v-2.9M7 17.2v-2.9m3.4-4.4v-3M7 9.7V7m10.6-4H6.4A3.4 3.4 0 0 0 3 6.4v11.2A3.4 3.4 0 0 0 6.4 21h11.2a3.4 3.4 0 0 0 3.4-3.4V6.4A3.4 3.4 0 0 0 17.6 3"/></svg>
